assets/home/foundation/godot-foundation-logo-dark.svg

<svg xmlns="http://www.w3.org/2000/svg" viewBox="0 0 684 352" fill="none"><path d="M164.662 302v-44.957h29.312v9.279h-18.592v8.811h16.649v9.145h-16.649V302h-10.72zm58.679 1.072c-4.266 0-7.995-.893-11.189-2.68-3.171-1.809-5.639-4.467-7.404-7.973-1.764-3.529-2.646-7.873-2.646-13.032 0-5.293.882-9.659 2.646-13.098 1.765-3.462 4.233-6.03 7.404-7.705 3.194-1.697 6.923-2.546 11.189-2.546 4.31 0 8.062.882 11.256 2.646 3.216 1.765 5.706 4.378 7.47 7.839s2.647 7.75 2.647 12.864c0 5.249-.882 9.637-2.647 13.166-1.764 3.506-4.254 6.142-7.47 7.906-3.194 1.742-6.946 2.613-11.256 2.613zm0-9.615c3.127 0 5.628-1.228 7.504-3.685 1.876-2.479 2.814-5.963 2.814-10.452 0-4.221-.938-7.548-2.814-9.983-1.876-2.456-4.377-3.685-7.504-3.685-3.037 0-5.494 1.229-7.37 3.685-1.876 2.435-2.814 5.785-2.814 10.05 0 4.445.938 7.906 2.814 10.385 1.876 2.457 4.333 3.685 7.37 3.685zm31.535-36.414h10.72v27.269c0 3.194.816 5.494 2.446 6.901s3.674 2.11 6.13 2.11c2.502 0 4.568-.703 6.198-2.11 1.653-1.407 2.479-3.707 2.479-6.901v-27.269h10.686v27.269c0 3.797-.748 7.102-2.244 9.916s-3.685 4.991-6.566 6.532-6.399 2.312-10.553 2.312-7.671-.77-10.552-2.312c-2.859-1.541-5.036-3.718-6.533-6.532-1.474-2.814-2.211-6.119-2.211-9.916v-27.269zm50.989 0h11.189l18.056 27.202h-.737v-27.202h10.72V302h-10.351l-19.933-29.882h1.776V302h-10.72v-44.957zm52.591 0h15.913c4.623 0 8.699.916 12.227 2.747s6.287 4.433 8.275 7.805c2.01 3.35 3.015 7.348 3.015 11.993 0 4.579-1.005 8.554-3.015 11.926-1.988 3.35-4.746 5.941-8.275 7.772-3.528 1.809-7.604 2.714-12.227 2.714h-15.913v-44.957zm10.72 9.849v25.326h5.193c2.434 0 4.534-.547 6.298-1.642 1.787-1.116 3.16-2.624 4.12-4.522.983-1.898 1.474-4.054 1.474-6.466 0-2.501-.491-4.701-1.474-6.599-.96-1.898-2.333-3.384-4.12-4.456-1.764-1.094-3.864-1.641-6.298-1.641h-5.193zM403.905 302l15.142-44.957h13.635L446.986 302h-11.289l-2.446-7.906h-15.51L415.295 302h-11.39zm16.549-15.846h10.352l-5.092-16.448-5.26 16.448zm26.86-19.832v-9.279h37.017v9.279h-15.51l2.412-2.412V302h-10.72v-38.09l2.412 2.412h-15.611zM492.401 302v-44.957h10.72V302h-10.72zm42.584 1.072c-4.266 0-7.995-.893-11.189-2.68-3.171-1.809-5.639-4.467-7.403-7.973-1.765-3.529-2.647-7.873-2.647-13.032 0-5.293.882-9.659 2.647-13.098 1.764-3.462 4.232-6.03 7.403-7.705 3.194-1.697 6.923-2.546 11.189-2.546 4.31 0 8.062.882 11.256 2.646 3.216 1.765 5.706 4.378 7.471 7.839s2.646 7.75 2.646 12.864c0 5.249-.882 9.637-2.646 13.166-1.765 3.506-4.255 6.142-7.471 7.906-3.194 1.742-6.946 2.613-11.256 2.613zm0-9.615c3.127 0 5.628-1.228 7.504-3.685 1.876-2.479 2.814-5.963 2.814-10.452 0-4.221-.938-7.548-2.814-9.983-1.876-2.456-4.377-3.685-7.504-3.685-3.037 0-5.494 1.229-7.37 3.685-1.876 2.435-2.814 5.785-2.814 10.05 0 4.445.938 7.906 2.814 10.385 1.876 2.457 4.333 3.685 7.37 3.685zm31.703-36.414h11.189l18.057 27.202h-.737v-27.202h10.72V302h-10.352l-19.932-29.882h1.775V302h-10.72v-44.957z" fill="#eee"/><path d="M93.921 61.229l37.599-21.707 29.216 26.111a114.26 114.26 0 0 1 33.467-2.49L219.173 33 260.5 49l-1.055 2.886L236 116.5c-24.068-19.673-56.598-21.485-85.114-5.021-36.829 21.263-40.838 67.785-28.184 105.184C124 220.5 132.5 238 148.5 250l-54.803 42.713-.178.082-29.559-31.876 18.904-34.283c-4.863-10.156-8.203-20.972-9.912-32.099L38 176.848l6.447-42.97 38.589-6.554c4.898-10.127 11.263-19.473 18.889-27.738l-8.005-38.358z" fill="url(#gfoundldsvga)"/><path d="M286.511 154.165c-5.025 0-9.234 2.308-12.649 6.911-3.396 4.607-5.104 11.074-5.104 19.395 0 8.339 1.623 14.723 4.875 19.172 3.246 4.462 7.511 6.684 12.801 6.684s9.584-2.25 12.883-6.765c3.299-4.499 4.952-10.939 4.952-19.322 0-8.377-1.707-14.825-5.111-19.328-3.399-4.497-7.615-6.747-12.647-6.747zm-.077 82.783c-14.712 0-26.709-4.814-35.982-14.442-9.26-9.636-13.892-23.697-13.892-42.181 0-18.496 4.685-32.5 14.055-42.036 9.373-9.523 21.472-14.289 36.293-14.289s26.787 4.68 35.891 14.067c9.122 9.369 13.675 23.571 13.675 42.567 0 19.009-4.659 33.147-13.985 42.426-9.326 9.259-21.335 13.888-36.055 13.888zm94.071-81.695v46.988c0 2.194.162 3.577.476 4.158s1.256.866 2.823.866c5.767 0 10.134-2.154 13.121-6.448 2.993-4.29 4.473-11.432 4.473-21.435s-1.549-16.528-4.626-19.558c-3.094-3.037-7.993-4.571-14.696-4.571h-1.571zm-30.16 72.903v-94.252c0-2.62.651-4.688 1.966-6.222 1.306-1.509 3.007-2.276 5.108-2.276h26.235c16.649 0 29.295 4.199 37.928 12.579 8.648 8.377 12.971 21.567 12.971 39.583 0 38.545-16.449 57.812-49.336 57.812h-26.859c-5.337 0-8.013-2.403-8.013-7.224zm144.523-73.991c-5.026 0-9.246 2.308-12.655 6.911-3.396 4.607-5.096 11.074-5.096 19.395 0 8.339 1.627 14.723 4.869 19.172 3.242 4.462 7.511 6.684 12.801 6.684s9.588-2.25 12.883-6.765c3.3-4.499 4.953-10.939 4.953-19.322 0-8.377-1.704-14.825-5.108-19.328-3.405-4.497-7.615-6.747-12.647-6.747zm-.081 82.783c-14.717 0-26.706-4.814-35.971-14.442-9.271-9.636-13.905-23.697-13.905-42.181 0-18.496 4.685-32.5 14.054-42.036 9.38-9.523 21.472-14.289 36.298-14.289s26.781 4.68 35.896 14.067c9.115 9.369 13.668 23.571 13.668 42.567 0 19.009-4.661 33.147-13.985 42.426-9.321 9.259-21.342 13.888-36.055 13.888zm108.591-4.071c0 2.082-5.178 3.138-15.551 3.138-10.364 0-15.557-1.056-15.557-3.138v-78.871h-18.848c-1.782 0-3.04-2.403-3.771-7.233-.314-2.298-.464-4.651-.464-7.064 0-2.399.15-4.762.464-7.065.731-4.817 1.989-7.238 3.771-7.238h68.339c1.779 0 3.032 2.421 3.773 7.238a53.33 53.33 0 0 1 .467 7.065c0 2.413-.159 4.766-.467 7.064-.741 4.83-1.994 7.233-3.773 7.233h-18.383v78.871zm-394.599-55.826c-8.458-.131-18.137 1.632-18.137 1.632v16.507h9.733l-.108 7.359c0 2.725-2.702 4.095-8.092 4.095-5.396 0-10.161-2.285-14.296-6.842-4.143-4.563-6.204-11.232-6.204-20.021 0-8.807 2.013-15.299 6.046-19.489 4.024-4.186 9.299-6.285 15.788-6.285 2.725 0 5.547.439 8.482 1.337 2.936.889 4.897 1.723 5.897 2.503.992.803 1.936 1.183 2.828 1.183s2.325-1.038 4.313-3.138c1.991-2.094 3.775-5.268 5.349-9.5 1.567-4.253 2.352-7.514 2.352-9.826 0-2.295-.05-3.877-.152-4.712-2.2-2.407-6.26-4.316-12.182-5.735-5.911-1.416-12.539-2.118-19.871-2.118-16.133 0-28.748 5.079-37.858 15.236C143.55 149.399 139 162.591 139 178.828c0 19.065 4.657 33.517 13.972 43.361 9.331 9.844 21.582 14.76 36.77 14.76 8.168 0 15.417-.703 21.751-2.118 6.341-1.41 10.556-2.857 12.653-4.321l.629-49.161c0-2.856-7.539-4.153-15.996-4.298z" fill="#eee"/><defs><linearGradient id="gfoundldsvga" x1="104.254" y1="55.263" x2="204.492" y2="228.881" gradientUnits="userSpaceOnUse"><stop stop-color="#46c4fc"/><stop offset="1" stop-color="#478cbf"/></linearGradient></defs></svg>

<svg width="684" height="352" viewBox="0 0 684 352" fill="none" xmlns="http://www.w3.org/2000/svg">
<path d="M164.662 302V257.043H193.974V266.322H175.382V275.133H192.031V284.278H175.382V302H164.662ZM223.341 303.072C219.075 303.072 215.346 302.179 212.152 300.392C208.981 298.583 206.513 295.925 204.748 292.419C202.984 288.89 202.102 284.546 202.102 279.387C202.102 274.094 202.984 269.728 204.748 266.289C206.513 262.827 208.981 260.259 212.152 258.584C215.346 256.887 219.075 256.038 223.341 256.038C227.651 256.038 231.403 256.92 234.597 258.684C237.813 260.449 240.303 263.062 242.067 266.523C243.832 269.985 244.714 274.273 244.714 279.387C244.714 284.636 243.832 289.024 242.067 292.553C240.303 296.059 237.813 298.695 234.597 300.459C231.403 302.201 227.651 303.072 223.341 303.072ZM223.341 293.457C226.468 293.457 228.969 292.229 230.845 289.772C232.721 287.293 233.659 283.809 233.659 279.32C233.659 275.099 232.721 271.772 230.845 269.337C228.969 266.881 226.468 265.652 223.341 265.652C220.304 265.652 217.847 266.881 215.971 269.337C214.095 271.772 213.157 275.122 213.157 279.387C213.157 283.832 214.095 287.293 215.971 289.772C217.847 292.229 220.304 293.457 223.341 293.457ZM254.876 257.043H265.596V284.312C265.596 287.506 266.412 289.806 268.042 291.213C269.672 292.62 271.716 293.323 274.172 293.323C276.674 293.323 278.74 292.62 280.37 291.213C282.023 289.806 282.849 287.506 282.849 284.312V257.043H293.535V284.312C293.535 288.109 292.787 291.414 291.291 294.228C289.795 297.042 287.606 299.219 284.725 300.76C281.844 302.302 278.326 303.072 274.172 303.072C270.018 303.072 266.501 302.302 263.62 300.76C260.761 299.219 258.584 297.042 257.087 294.228C255.613 291.414 254.876 288.109 254.876 284.312V257.043ZM305.865 257.043H317.054L335.11 284.245H334.373V257.043H345.093V302H334.742L314.809 272.118H316.585V302H305.865V257.043ZM358.456 257.043H374.369C378.992 257.043 383.068 257.959 386.596 259.79C390.125 261.621 392.883 264.223 394.871 267.595C396.881 270.945 397.886 274.943 397.886 279.588C397.886 284.167 396.881 288.142 394.871 291.514C392.883 294.864 390.125 297.455 386.596 299.286C383.068 301.095 378.992 302 374.369 302H358.456V257.043ZM369.176 266.892V292.218H374.369C376.803 292.218 378.903 291.671 380.667 290.576C382.454 289.46 383.827 287.952 384.787 286.054C385.77 284.156 386.261 282 386.261 279.588C386.261 277.087 385.77 274.887 384.787 272.989C383.827 271.091 382.454 269.605 380.667 268.533C378.903 267.439 376.803 266.892 374.369 266.892H369.176ZM403.905 302L419.047 257.043H432.682L446.986 302H435.697L433.251 294.094H417.741L415.295 302H403.905ZM420.454 286.154H430.806L425.714 269.706L420.454 286.154ZM447.314 266.322V257.043H484.331V266.322H468.821L471.233 263.91V302H460.513V263.91L462.925 266.322H447.314ZM492.401 302V257.043H503.121V302H492.401ZM534.985 303.072C530.719 303.072 526.99 302.179 523.796 300.392C520.625 298.583 518.157 295.925 516.393 292.419C514.628 288.89 513.746 284.546 513.746 279.387C513.746 274.094 514.628 269.728 516.393 266.289C518.157 262.827 520.625 260.259 523.796 258.584C526.99 256.887 530.719 256.038 534.985 256.038C539.295 256.038 543.047 256.92 546.241 258.684C549.457 260.449 551.947 263.062 553.712 266.523C555.476 269.985 556.358 274.273 556.358 279.387C556.358 284.636 555.476 289.024 553.712 292.553C551.947 296.059 549.457 298.695 546.241 300.459C543.047 302.201 539.295 303.072 534.985 303.072ZM534.985 293.457C538.112 293.457 540.613 292.229 542.489 289.772C544.365 287.293 545.303 283.809 545.303 279.32C545.303 275.099 544.365 271.772 542.489 269.337C540.613 266.881 538.112 265.652 534.985 265.652C531.948 265.652 529.491 266.881 527.615 269.337C525.739 271.772 524.801 275.122 524.801 279.387C524.801 283.832 525.739 287.293 527.615 289.772C529.491 292.229 531.948 293.457 534.985 293.457ZM566.688 257.043H577.877L595.934 284.245H595.197V257.043H605.917V302H595.565L575.633 272.118H577.408V302H566.688V257.043Z" fill="#EEEEEE"/>
<path d="M93.9214 61.2285L131.52 39.5212L160.736 65.6324C171.706 63.1599 182.983 62.321 194.203 63.1426L219.173 33L260.5 49L259.445 51.8864L236 116.5C211.932 96.8268 179.402 95.0147 150.886 111.479C114.057 132.742 110.048 179.264 122.702 216.663C124 220.5 132.5 238 148.5 250L93.6965 292.713L93.5185 292.795L63.96 260.919L82.8638 226.636C78.001 216.48 74.6611 205.664 72.952 194.537L38 176.848L44.4472 133.878L83.0366 127.324C87.9346 117.197 94.2997 107.851 101.926 99.5862L93.9214 61.2285Z" fill="url(#paint0_linear_4095_584)"/>
<path d="M286.511 154.165C281.486 154.165 277.277 156.473 273.862 161.076C270.466 165.683 268.758 172.15 268.758 180.471C268.758 188.81 270.381 195.194 273.633 199.643C276.879 204.105 281.144 206.327 286.434 206.327C291.722 206.327 296.018 204.077 299.317 199.562C302.616 195.063 304.269 188.623 304.269 180.24C304.269 171.863 302.562 165.415 299.158 160.912C295.759 156.415 291.543 154.165 286.511 154.165ZM286.434 236.948C271.722 236.948 259.725 232.134 250.452 222.506C241.192 212.87 236.56 198.809 236.56 180.325C236.56 161.829 241.245 147.825 250.615 138.289C259.988 128.766 272.087 124 286.908 124C301.725 124 313.695 128.68 322.799 138.067C331.921 147.436 336.474 161.638 336.474 180.634C336.474 199.643 331.815 213.781 322.489 223.06C313.163 232.319 301.154 236.948 286.434 236.948Z" fill="#EEEEEE"/>
<path d="M380.505 155.253V202.241C380.505 204.435 380.667 205.818 380.981 206.399C381.293 206.976 382.237 207.265 383.804 207.265C389.571 207.265 393.938 205.111 396.925 200.817C399.918 196.527 401.398 189.385 401.398 179.382C401.398 169.374 399.849 162.854 396.772 159.824C393.678 156.787 388.779 155.253 382.076 155.253H380.505ZM350.345 228.156V133.904C350.345 131.284 350.996 129.216 352.311 127.682C353.617 126.173 355.318 125.406 357.419 125.406H383.654C400.303 125.406 412.949 129.605 421.582 137.985C430.23 146.362 434.553 159.552 434.553 177.568C434.553 216.113 418.104 235.38 385.217 235.38H358.358C353.021 235.38 350.345 232.977 350.345 228.156Z" fill="#EEEEEE"/>
<path d="M494.868 154.165C489.842 154.165 485.622 156.473 482.213 161.076C478.817 165.683 477.117 172.15 477.117 180.471C477.117 188.81 478.744 195.194 481.986 199.643C485.228 204.105 489.497 206.327 494.787 206.327C500.076 206.327 504.375 204.077 507.67 199.562C510.97 195.063 512.623 188.623 512.623 180.24C512.623 171.863 510.919 165.415 507.515 160.912C504.11 156.415 499.9 154.165 494.868 154.165ZM494.787 236.948C480.07 236.948 468.081 232.134 458.816 222.506C449.545 212.87 444.911 198.809 444.911 180.325C444.911 161.829 449.596 147.825 458.965 138.289C468.345 128.766 480.437 124 495.263 124C510.084 124 522.044 128.68 531.159 138.067C540.274 147.436 544.827 161.638 544.827 180.634C544.827 199.643 540.166 213.781 530.842 223.06C521.521 232.319 509.5 236.948 494.787 236.948Z" fill="#EEEEEE"/>
<path d="M603.378 232.877C603.378 234.959 598.2 236.015 587.827 236.015C577.463 236.015 572.27 234.959 572.27 232.877V154.006H553.422C551.64 154.006 550.382 151.603 549.651 146.773C549.337 144.475 549.187 142.122 549.187 139.709C549.187 137.31 549.337 134.947 549.651 132.644C550.382 127.827 551.64 125.406 553.422 125.406H621.761C623.54 125.406 624.793 127.827 625.534 132.644C625.842 134.947 626.001 137.31 626.001 139.709C626.001 142.122 625.842 144.475 625.534 146.773C624.793 151.603 623.54 154.006 621.761 154.006H603.378V232.877Z" fill="#EEEEEE"/>
<path d="M208.779 177.051C200.321 176.92 190.642 178.683 190.642 178.683V195.19H200.375L200.267 202.549C200.267 205.274 197.565 206.644 192.175 206.644C186.779 206.644 182.014 204.359 177.879 199.802C173.736 195.239 171.675 188.57 171.675 179.781C171.675 170.974 173.688 164.482 177.721 160.292C181.745 156.106 187.02 154.007 193.509 154.007C196.234 154.007 199.056 154.446 201.991 155.344C204.927 156.233 206.888 157.067 207.888 157.847C208.88 158.65 209.824 159.03 210.716 159.03C211.603 159.03 213.041 157.992 215.029 155.892C217.02 153.798 218.804 150.624 220.378 146.392C221.945 142.139 222.73 138.878 222.73 136.566C222.73 134.271 222.68 132.689 222.578 131.854C220.378 129.447 216.318 127.538 210.396 126.119C204.485 124.703 197.857 124.001 190.525 124.001C174.392 124.001 161.777 129.08 152.667 139.237C143.55 149.399 139 162.591 139 178.828C139 197.893 143.657 212.345 152.972 222.189C162.303 232.033 174.554 236.949 189.742 236.949C197.91 236.949 205.159 236.246 211.493 234.831C217.834 233.421 222.049 231.974 224.146 230.51L224.775 181.349C224.775 178.493 217.236 177.196 208.779 177.051Z" fill="#EEEEEE"/>
<defs>
<linearGradient id="paint0_linear_4095_584" x1="104.254" y1="55.2633" x2="204.492" y2="228.881" gradientUnits="userSpaceOnUse">
<stop stop-color="#46C4FC"/>
<stop offset="1" stop-color="#478CBF"/>
</linearGradient>
</defs>
</svg>
